X: 1
T: the Hare
T: Reel Souci
R: reel
Z: 2012 John Chambers <jc:trillian.mit.edu>
B: The Portland Collection v.2 p.85
M: C|
L: 1/8
K: D
|: BAF |\
"D"DFAd (3BdB "A7"AG | "D"FABc dcd2 | "D"DFAd "Bm"BdB AF | "Em"BFAF "A7"EGFE |
"D"DFAd (3BdB "A7"AG | "D"FABc dcde | "D"f2fa "G"gfed | "A7"cABc "D"d :|
|::: efg |\
"D"a2fd Adfa | "A7"g2ec Acef | "A7"gece aece | "A7"bgec "D"d :::|
